svgs/light/subscript.svg

<svg xmlns="http://www.w3.org/2000/svg" viewBox="0 0 512 512"><!-- Font Awesome Pro 6.0.0-alpha2 by @fontawesome - https://fontawesome.com License - https://fontawesome.com/license (Commercial License) --><path d="M336 96C344.844 96 352 88.844 352 80S344.844 64 336 64H288C282.531 64 277.438 66.797 274.5 71.406L176 226.195L77.5 71.406C74.562 66.797 69.469 64 64 64H16C7.156 64 0 71.156 0 80S7.156 96 16 96H55.219L157.035 256L55.219 416H16C7.156 416 0 423.156 0 432S7.156 448 16 448H64C69.469 448 74.562 445.203 77.5 440.594L176 285.805L274.5 440.594C277.438 445.203 282.531 448 288 448H336C344.844 448 352 440.844 352 432S344.844 416 336 416H296.781L194.965 256L296.781 96H336ZM496 480H464V336C464 327.156 456.844 320 448 320H416C407.156 320 400 327.156 400 336S407.156 352 416 352H432V480H400C391.156 480 384 487.156 384 496S391.156 512 400 512H496C504.844 512 512 504.844 512 496S504.844 480 496 480Z"/></svg>

<svg xmlns="http://www.w3.org/2000/svg" viewBox="0 0 512 512"><!--! Font Awesome Pro 6.4.0 by @fontawesome - https://fontawesome.com License - https://fontawesome.com/license (Commercial License) Copyright 2023 Fonticons, Inc. --><path d="M16 64C7.2 64 0 71.2 0 80s7.2 16 16 16H55.2L157 256 55.2 416H16c-8.8 0-16 7.2-16 16s7.2 16 16 16H64c5.5 0 10.6-2.8 13.5-7.4L176 285.8l98.5 154.8c2.9 4.6 8 7.4 13.5 7.4h48c8.8 0 16-7.2 16-16s-7.2-16-16-16H296.8L195 256 296.8 96H336c8.8 0 16-7.2 16-16s-7.2-16-16-16H288c-5.5 0-10.6 2.8-13.5 7.4L176 226.2 77.5 71.4C74.6 66.8 69.5 64 64 64H16zM464 336c0-5.1-2.5-10-6.6-13s-9.5-3.8-14.4-2.2l-48 16c-8.4 2.8-12.9 11.9-10.1 20.2s11.9 12.9 20.2 10.1l26.9-9V480H400c-8.8 0-16 7.2-16 16s7.2 16 16 16h48 48c8.8 0 16-7.2 16-16s-7.2-16-16-16H464V336z"/></svg>
